packages/components/icon/src/assets/icons/accept.svg

<svg width="24" height="24" viewBox="0 0 24 24" fill="none" xmlns="http://www.w3.org/2000/svg">
<path fill-rule="evenodd" clip-rule="evenodd" d="M20.8296 6.6105C21.1117 6.89253 21.1117 7.34811 20.8296 7.63014L11.0672 17.4142C10.7852 17.6963 10.2428 17.9349 9.83064 17.9349H8.98457C8.59407 17.9349 8.05171 17.6963 7.76969 17.4142L3.1705 12.8151C2.88848 12.533 2.88848 12.0558 3.1705 11.7737L4.97113 9.97312C5.25315 9.69109 5.70873 9.69109 5.99076 9.97312L8.94118 12.9018C9.2232 13.1839 9.67878 13.1839 9.96081 12.9018L18.0094 4.83158C18.2914 4.54955 18.747 4.54955 19.029 4.83158L20.8296 6.6105Z" fill="currentColor"/>
</svg>

<svg viewBox="0 0 24 24" fill="none" xmlns="http://www.w3.org/2000/svg"><path fill-rule="evenodd" clip-rule="evenodd" d="M20.83 6.61a.72.72 0 0 1 0 1.02l-9.763 9.784c-.282.282-.824.52-1.236.52h-.846c-.39 0-.933-.238-1.215-.52l-4.6-4.599a.747.747 0 0 1 0-1.041l1.801-1.8a.72.72 0 0 1 1.02 0l2.95 2.928a.72.72 0 0 0 1.02 0l8.048-8.07a.72.72 0 0 1 1.02 0l1.8 1.779Z" fill="currentColor"/></svg>
